common/svg/channel-icon.svg

<svg fill="none" height="20" viewBox="0 0 20 20" width="20" xmlns="http://www.w3.org/2000/svg"><g fill="#000"><path d="m5.03135 9.37664c-.07686-.04329-.14931-.09292-.2167-.14811l-3.846537 2.14227 4.028697 2.1422c.14729.0783.32393.078.47096-.0008l3.53872-1.8967z"/><path d="m14.5087 13.4799-3.514-1.8686 3.9666-2.23475c.0864-.04864.1671-.10528.2414-.16881l3.8017 2.11406-4.0247 2.1573c-.147.0788-.3237.0791-.471.0008z"/><path d="m5.72037 2.78081 4.0324 2.1442c.14728.07832.32393.07803.47093-.00078l4.0248-2.15725-4.0052-2.2272c-.1607-.089628-.35865-.08949-.51921.000365z"/><path d="m14.7535 3.63087-4.0574 2.17474c-.441.23642-.97097.23729-1.41283.00234l-4.0417-2.14915.02286 4.41564c.0008.1554.07593.3003.20105.39399.01787.01339.03676.02573.0566.0369l4.20078 2.36587c.08453.0476.17953.0703.27405.0681.09449.0022.18959-.0205.27409-.0681l4.1995-2.3659c.1487-.08378.2441-.23294.2563-.3975.0008-.01097.0012-.02201.0013-.0331z"/><path d="m10.0024 12.2162.0463-.0248-.0003.0493 3.9908 2.1221c.4419.2349.9718.2341 1.4129-.0023l4.0574-2.1748-.0255 4.4438c0 .0111-.0005.0222-.0013.0331-.0122.1646-.1075.3138-.2563.3975l-4.1994 2.3659c-.0846.0477-.1796.0704-.2741.0681-.0945.0023-.1895-.0204-.2741-.068l-4.2-2.3328-.25-.1528-.26478.1528-4.222 2.3659c-.08075.0452-.171.068-.26131.0682l-.01161-.0002-.00132.0001-.00132-.0001-.01204.0002c-.09011-.0003-.18014-.023-.26071-.0682l-4.221316-2.3659c-.159514-.0894-.257992-.2533-.258916-.4309l-.022954-4.413 4.036796 2.1465c.44186.235.97179.2341 1.41286-.0023l4.05738-2.1748-.00002-.0052z"/></g></svg>

<svg width="20" height="20" viewBox="0 0 20 20" fill="none" xmlns="http://www.w3.org/2000/svg">
<path d="M5.03135 9.37664C4.95449 9.33335 4.88204 9.28372 4.81465 9.22853L0.968113 11.3708L4.99681 13.513C5.1441 13.5913 5.32074 13.591 5.46777 13.5122L9.00649 11.6155L5.03135 9.37664Z" fill="black"/>
<path d="M14.5087 13.4799L10.9947 11.6113L14.9613 9.37655C15.0477 9.32791 15.1284 9.27127 15.2027 9.20774L19.0044 11.3218L14.9797 13.4791C14.8327 13.5579 14.656 13.5582 14.5087 13.4799Z" fill="black"/>
<path d="M5.72037 2.78081L9.75277 4.92501C9.90005 5.00333 10.0767 5.00304 10.2237 4.92423L14.2485 2.76698L10.2433 0.53978C10.0826 0.450152 9.88465 0.45029 9.72409 0.540145L5.72037 2.78081Z" fill="black"/>
<path d="M14.7535 3.63087L10.6961 5.80561C10.2551 6.04203 9.72513 6.0429 9.28327 5.80795L5.24157 3.6588L5.26443 8.07444C5.26523 8.22984 5.34036 8.37474 5.46548 8.46843C5.48335 8.48182 5.50224 8.49416 5.52208 8.50533L9.72286 10.8712C9.80739 10.9188 9.90239 10.9415 9.99691 10.9393C10.0914 10.9415 10.1865 10.9188 10.271 10.8712L14.4705 8.5053C14.6192 8.42152 14.7146 8.27236 14.7268 8.1078C14.7276 8.09683 14.728 8.08579 14.7281 8.0747L14.7535 3.63087Z" fill="black"/>
<path d="M10.0024 12.2162L10.0487 12.1914L10.0484 12.2407L14.0392 14.3628C14.4811 14.5977 15.011 14.5969 15.4521 14.3605L19.5095 12.1857L19.484 16.6295C19.484 16.6406 19.4835 16.6517 19.4827 16.6626C19.4705 16.8272 19.3752 16.9764 19.2264 17.0601L15.027 19.426C14.9424 19.4737 14.8474 19.4964 14.7529 19.4941C14.6584 19.4964 14.5634 19.4737 14.4788 19.4261L10.2788 17.0933L10.0288 16.9405L9.76402 17.0933L5.54202 19.4592C5.46127 19.5044 5.37102 19.5272 5.28071 19.5274L5.2691 19.5272L5.26778 19.5273L5.26646 19.5272L5.25442 19.5274C5.16431 19.5271 5.07428 19.5044 4.99371 19.4592L0.772394 17.0933C0.61288 17.0039 0.514402 16.84 0.513478 16.6624L0.490524 12.2494L4.52732 14.3959C4.96918 14.6309 5.49911 14.63 5.94018 14.3936L9.99756 12.2188L9.99754 12.2136L10.0024 12.2162Z" fill="black"/>
</svg>
